src/img/icon-download-updated.svg

<svg width="16" height="16" viewBox="0 0 32 32" fill="none" xmlns="http://www.w3.org/2000/svg">
<path d="M27.7143 28.5071H3.71429C2.76786 28.5071 2 29.2757 2 30.2229C2 31.2286 2.76786 32 3.71429 32H27.7143C28.6607 32 29.4286 31.2314 29.4286 30.2843C29.4286 29.3357 28.6643 28.5071 27.7143 28.5071ZM23.6071 12.55L17.4286 19.1214V1.72143C17.4286 0.768571 16.6643 0 15.7143 0C14.7643 0 14 0.768571 14 1.71571V19.1157L7.81929 12.55C7.48214 12.1857 7.02714 12.0071 6.57143 12.0071C6.14957 12.0071 5.72786 12.1613 5.39714 12.474C4.70743 13.1218 4.67429 14.2076 5.3235 14.8976L14.4664 24.619C15.1136 25.3114 16.3149 25.3114 16.9621 24.619L26.1049 14.8976C26.7545 14.2074 26.721 13.1219 26.0313 12.474C25.3429 11.8214 24.2571 11.7929 23.6071 12.55Z" fill="black"/>
</svg>

<svg xmlns="http://www.w3.org/2000/svg" width="16" height="16" viewBox="0 0 32 32" fill="#000">
  <path d="M27.714 28.507h-24c-.946 0-1.714.769-1.714 1.716C2 31.23 2.768 32 3.714 32h24c.947 0 1.715-.769 1.715-1.716 0-.948-.765-1.777-1.715-1.777zM23.607 12.55l-6.178 6.571v-17.4A1.714 1.714 0 1 0 14 1.716v17.4L7.82 12.55a1.69 1.69 0 0 0-1.249-.543 1.714 1.714 0 0 0-1.248 2.89l9.143 9.722c.648.692 1.85.692 2.496 0l9.143-9.721c.65-.69.616-1.776-.074-2.424-.688-.653-1.774-.681-2.424.076z"/>
</svg>
